teeny/solid/play.svg

<svg width="15" height="15" viewBox="0 0 15 15" fill="none" xmlns="http://www.w3.org/2000/svg">
<path d="M4.79062 2.09314C4.63821 1.98427 4.43774 1.96972 4.27121 2.05542C4.10467 2.14112 4 2.31271 4 2.5V12.5C4 12.6873 4.10467 12.8589 4.27121 12.9446C4.43774 13.0303 4.63821 13.0157 4.79062 12.9069L11.7906 7.90687C11.922 7.81301 12 7.66148 12 7.5C12 7.33853 11.922 7.18699 11.7906 7.09314L4.79062 2.09314Z" fill="black"/>
</svg>

<svg viewBox="0 0 15 15" xmlns="http://www.w3.org/2000/svg"><path d="M4.79 2.09c-.16-.11-.36-.13-.52-.04 -.17.08-.28.25-.28.44v10c0 .18.1.35.27.44 .16.08.36.07.51-.04l6.99-5.01c.13-.1.2-.25.2-.41 0-.17-.08-.32-.21-.41l-7-5Z"/></svg>
